packages/sources/assets/src/assets/stripe.svg

<svg width="58" height="40" viewBox="0 0 58 40" fill="none" xmlns="http://www.w3.org/2000/svg">
<rect x="0.5" y="0.5" width="57" height="39" rx="3.5" fill="white" stroke="#F3F3F3"/>
<path fill-rule="evenodd" clip-rule="evenodd" d="M30.6556 14.3007L27.8667 14.9127V12.6007L30.6556 12V14.3007ZM36.4556 15.5813C35.3667 15.5813 34.6667 16.1027 34.2778 16.4653L34.1333 15.7627H31.6889V28.9773L34.4667 28.3767L34.4778 25.1693C34.8778 25.464 35.4667 25.8833 36.4444 25.8833C38.4333 25.8833 40.2444 24.2513 40.2444 20.6587C40.2333 17.372 38.4 15.5813 36.4556 15.5813ZM35.7889 23.39C35.1333 23.39 34.7444 23.152 34.4778 22.8573L34.4667 18.6527C34.7556 18.324 35.1556 18.0973 35.7889 18.0973C36.8 18.0973 37.5 19.2533 37.5 20.738C37.5 22.2567 36.8111 23.39 35.7889 23.39ZM49 20.772C49 17.8707 47.6222 15.5813 44.9889 15.5813C42.3444 15.5813 40.7444 17.8707 40.7444 20.7493C40.7444 24.1607 42.6333 25.8833 45.3444 25.8833C46.6667 25.8833 47.6667 25.5773 48.4222 25.1467V22.88C47.6667 23.2653 46.8 23.5033 45.7 23.5033C44.6222 23.5033 43.6667 23.118 43.5444 21.7807H48.9778C48.9778 21.7183 48.9818 21.5765 48.9864 21.4132L48.9864 21.4129L48.9864 21.4125L48.9864 21.412L48.9864 21.4114L48.9864 21.4108C48.9927 21.1891 49 20.9282 49 20.772ZM43.5111 19.6953C43.5111 18.4147 44.2778 17.882 44.9778 17.882C45.6556 17.882 46.3778 18.4147 46.3778 19.6953H43.5111ZM27.8667 15.774H30.6556V25.6907H27.8667V15.774ZM24.7 15.774L24.8778 16.6127C25.5333 15.3887 26.8333 15.638 27.1889 15.774V18.3807C26.8444 18.256 25.7333 18.0973 25.0778 18.97V25.6907H22.3V15.774H24.7ZM19.3222 13.3147L16.6111 13.904L16.6 22.982C16.6 24.6593 17.8333 25.8947 19.4778 25.8947C20.3889 25.8947 21.0556 25.7247 21.4222 25.5207V23.22C21.0667 23.3673 19.3111 23.8887 19.3111 22.2113V18.188H21.4222V15.774H19.3111L19.3222 13.3147ZM12.7556 18.0407C12.1667 18.0407 11.8111 18.2107 11.8111 18.6527C11.8111 19.1353 12.423 19.3475 13.1822 19.6109C14.4198 20.0403 16.0487 20.6054 16.0556 22.6987C16.0556 24.7273 14.4667 25.8947 12.1556 25.8947C11.2 25.8947 10.1556 25.702 9.12222 25.2487V22.5513C10.0556 23.0727 11.2333 23.458 12.1556 23.458C12.7778 23.458 13.2222 23.288 13.2222 22.7667C13.2222 22.2321 12.5589 21.9878 11.7581 21.6928C10.5385 21.2435 9 20.6768 9 18.7887C9 16.7827 10.5 15.5813 12.7556 15.5813C13.6778 15.5813 14.5889 15.7287 15.5111 16.1027V18.766C14.6667 18.3013 13.6 18.0407 12.7556 18.0407Z" fill="#6772E5"/>
</svg>

<svg width="58" height="40" fill="none" xmlns="http://www.w3.org/2000/svg"><rect x=".5" y=".5" width="57" height="39" rx="3.5" fill="#fff" stroke="#F3F3F3"/><path fill-rule="evenodd" clip-rule="evenodd" d="m30.656 14.3-2.79.613V12.6l2.79-.601v2.3Zm5.8 1.281c-1.09 0-1.79.522-2.178.884l-.145-.702H31.69v13.214l2.778-.6.01-3.208c.4.295.99.714 1.967.714 1.99 0 3.8-1.632 3.8-5.224-.01-3.287-1.844-5.078-3.788-5.078Zm-.667 7.809c-.656 0-1.045-.238-1.311-.533l-.011-4.204c.289-.329.689-.556 1.322-.556 1.011 0 1.711 1.156 1.711 2.641 0 1.519-.689 2.652-1.711 2.652ZM49 20.772c0-2.901-1.378-5.19-4.011-5.19-2.645 0-4.245 2.289-4.245 5.167 0 3.412 1.89 5.134 4.6 5.134 1.323 0 2.323-.306 3.078-.736V22.88c-.755.385-1.622.623-2.722.623-1.078 0-2.033-.385-2.156-1.722h5.434c0-.063.004-.205.008-.368.007-.222.014-.484.014-.641Zm-5.489-1.077c0-1.28.767-1.813 1.467-1.813.678 0 1.4.533 1.4 1.813H43.51Zm-15.644-3.921h2.789v9.917h-2.79v-9.917Zm-3.167 0 .178.839c.655-1.224 1.955-.975 2.31-.839v2.607c-.344-.125-1.455-.284-2.11.589v6.72H22.3v-9.916h2.4Zm-5.378-2.46-2.71.59-.012 9.078c0 1.677 1.233 2.913 2.878 2.913.91 0 1.578-.17 1.944-.374V23.22c-.355.147-2.11.669-2.11-1.009v-4.023h2.11v-2.414h-2.11l.01-2.46Zm-6.566 4.727c-.59 0-.945.17-.945.612 0 .482.612.695 1.371.958 1.238.43 2.867.994 2.874 3.088 0 2.028-1.59 3.196-3.9 3.196-.956 0-2-.193-3.034-.646V22.55c.934.522 2.111.907 3.034.907.622 0 1.066-.17 1.066-.691 0-.535-.663-.78-1.464-1.074C10.538 21.243 9 20.677 9 18.789c0-2.006 1.5-3.208 3.756-3.208a7.2 7.2 0 0 1 2.755.522v2.663c-.844-.465-1.911-.725-2.755-.725Z" fill="#6772E5"/></svg>
